assets/images/rating.svg

<svg width="178" height="22" viewBox="0 0 178 22" fill="none" xmlns="http://www.w3.org/2000/svg">
<g clip-path="url(#clip0_1405_177)">
<path d="M18.27 21.66L11.29 16.63L4.23 21.55L6.86 13.36L0 8.16L8.6 8.13L11.43 0L14.11 8.18L22.72 8.35L15.77 13.43L18.27 21.66Z" fill="#FFC100"/>
<path d="M56.9204 21.66L49.9404 16.63L42.8804 21.55L45.5104 13.36L38.6504 8.16L47.2504 8.13L50.0704 0L52.7604 8.18L61.3704 8.35L54.4204 13.43L56.9204 21.66Z" fill="#FFC100"/>
<path d="M95.5698 21.66L88.5898 16.63L81.5298 21.55L84.1598 13.36L77.2998 8.16L85.8998 8.13L88.7198 0L91.4098 8.18L100.02 8.35L93.0698 13.43L95.5698 21.66Z" fill="#FFC100"/>
<path d="M134.22 21.66L127.24 16.63L120.17 21.55L122.81 13.36L115.95 8.16L124.55 8.13L127.37 0L130.06 8.18L138.66 8.35L131.72 13.43L134.22 21.66Z" fill="#FFC100"/>
<path d="M172.87 21.66L165.88 16.63L158.82 21.55L161.45 13.36L154.59 8.16L163.2 8.13L166.02 0L168.71 8.18L177.31 8.35L170.37 13.43L172.87 21.66Z" fill="#758891"/>
</g>
<defs>
<clipPath id="clip0_1405_177">
<rect width="177.31" height="21.66" fill="white"/>
</clipPath>
</defs>
</svg>

<svg fill="none" height="22" viewBox="0 0 178 22" width="178" xmlns="http://www.w3.org/2000/svg" xmlns:xlink="http://www.w3.org/1999/xlink"><clipPath id="a"><path d="m0 0h177.31v21.66h-177.31z"/></clipPath><g clip-path="url(#a)"><g fill="#ffc100"><path d="m18.27 21.66-6.98-5.03-7.06 4.92 2.63-8.19-6.86-5.2 8.6-.03 2.83-8.13 2.68 8.18 8.61.17-6.95 5.08z"/><path d="m56.9204 21.66-6.98-5.03-7.06 4.92 2.63-8.19-6.86-5.2 8.6-.03 2.82-8.13 2.69 8.18 8.61.17-6.95 5.08z"/><path d="m95.5698 21.66-6.98-5.03-7.06 4.92 2.63-8.19-6.86-5.2 8.6-.03 2.82-8.13 2.69 8.18 8.6102.17-6.9502 5.08z"/><path d="m134.22 21.66-6.98-5.03-7.07 4.92 2.64-8.19-6.86-5.2 8.6-.03 2.82-8.13 2.69 8.18 8.6.17-6.94 5.08z"/></g><path d="m172.87 21.66-6.99-5.03-7.06 4.92 2.63-8.19-6.86-5.2 8.61-.03 2.82-8.13 2.69 8.18 8.6.17-6.94 5.08z" fill="#758891"/></g></svg>
